X:515
T:B515-  While I Gaze on Chloris Trembling
S:(2nd/2)
Q:1/4=120
L:1/4
M:C|
K:A
cAeB|c(B/A/)BE|A3/2B/cA|GEB2|\
cAeB|c(B/A/)BE|e3/2d/ (c/B/) (A/B/)|c(B/A/) A2||\
B3/2c/BE|BecA|(d/e/) (f/e/) (e/d/) (c/B/)|(A/B/) (c/B/)B2|\
B(c/d/) (c/B/) (A/B/)|c(B/A/) (e/d/)c|\
(f/e/) (e/d/) (c/B/) (A/B/)|c(B/A/) A2|]
